src/assets/settings-icon-card.svg

<svg width="16" height="17" viewBox="0 0 16 17" fill="none" xmlns="http://www.w3.org/2000/svg">
<g clip-path="url(#clip0_368_6636)">
<path fill-rule="evenodd" clip-rule="evenodd" d="M7.96459 1.03227C7.20679 1.02726 6.51024 1.45516 6.17266 2.13201L5.85956 2.75821C5.73617 2.80403 5.61479 2.85421 5.49471 2.90829L4.83098 2.68705C4.11395 2.4477 3.3181 2.63746 2.78677 3.1774C2.2631 3.70963 2.08333 4.49319 2.3197 5.19963L2.54094 5.86206C2.4857 5.98298 2.43402 6.10517 2.38698 6.2295L1.76336 6.54131C1.08723 6.87855 0.658084 7.57443 0.663627 8.33194C0.669093 9.07878 1.09574 9.76007 1.76207 10.0928L2.38957 10.4085C2.43557 10.5319 2.48559 10.6533 2.53965 10.7734L2.3197 11.4358C2.08059 12.1521 2.26974 12.9473 2.80876 13.4787C3.34058 14.003 4.12419 14.1829 4.83098 13.9471L5.49341 13.7271C5.61419 13.7822 5.73667 13.8327 5.86085 13.8798L6.17266 14.5021C6.51024 15.179 7.20679 15.6078 7.96459 15.6018C8.71129 15.5968 9.39284 15.1691 9.72546 14.5021L10.0373 13.8785C10.1622 13.8322 10.2857 13.7819 10.4073 13.7271L11.0671 13.9471C11.7739 14.1829 12.5575 14.0031 13.0894 13.4787C13.6287 12.9469 13.8182 12.1511 13.5784 11.4345L13.3585 10.7721C13.4134 10.6516 13.4643 10.5297 13.5111 10.4059L14.1348 10.0928C14.8016 9.76025 15.229 9.07911 15.2345 8.33194C15.2401 7.5744 14.8109 6.87855 14.1348 6.54131L13.5086 6.2282C13.4625 6.10402 13.4127 5.98161 13.3585 5.86076L13.5784 5.19963V5.19833C13.8141 4.49222 13.6347 3.70931 13.1114 3.1774C12.58 2.63736 11.7842 2.44777 11.0671 2.68705L10.4034 2.90829C10.283 2.85346 10.1611 2.80244 10.0373 2.75562L9.72546 2.13201C9.39284 1.46508 8.71132 1.0381 7.96459 1.03227ZM7.95424 2.35713C8.20338 2.35906 8.42847 2.50034 8.54033 2.72457L8.96082 3.56555C9.0003 3.64465 9.0552 3.71504 9.12231 3.77259C9.18941 3.83014 9.26736 3.87368 9.35155 3.90064C9.60113 3.98026 9.84351 4.08015 10.0761 4.20081C10.1546 4.24167 10.2405 4.26638 10.3287 4.27349C10.4169 4.2806 10.5057 4.26997 10.5897 4.24221L11.485 3.94463H11.4863C11.7276 3.86401 11.9897 3.9271 12.1669 4.10636C12.3414 4.28387 12.4003 4.54278 12.3208 4.78043V4.78173L12.0246 5.67316C11.9969 5.75646 11.9861 5.84443 11.9928 5.93193C11.9995 6.01944 12.0235 6.10476 12.0634 6.18292C12.1825 6.41601 12.2814 6.65893 12.3597 6.90875C12.3863 6.99376 12.4298 7.07253 12.4876 7.14033C12.5454 7.20813 12.6163 7.26358 12.696 7.30336L13.5422 7.72643C13.7698 7.83985 13.9115 8.06927 13.9096 8.32159C13.9078 8.5702 13.7666 8.79579 13.5422 8.90768H13.5409L12.6999 9.32946C12.6211 9.36907 12.5509 9.42404 12.4936 9.49114C12.4363 9.55824 12.3929 9.63611 12.3661 9.72019C12.286 9.96981 12.1857 10.2122 12.0647 10.4447C12.0236 10.5234 11.9988 10.6095 11.9917 10.698C11.9846 10.7864 11.9953 10.8754 12.0233 10.9597L12.3208 11.8537C12.4015 12.0948 12.3403 12.3569 12.1604 12.5342C11.9832 12.709 11.7241 12.7688 11.4863 12.6895H11.485L10.5936 12.3932C10.5101 12.3654 10.4219 12.3545 10.3342 12.3612C10.2464 12.3678 10.1609 12.3919 10.0826 12.432C9.84914 12.5517 9.60697 12.6511 9.35672 12.7296C9.27171 12.7562 9.19294 12.7998 9.12514 12.8576C9.05734 12.9154 9.00189 12.9863 8.96211 13.066L8.54033 13.9095C8.42848 14.1339 8.20341 14.275 7.95424 14.277C7.70125 14.279 7.47136 14.1373 7.35779 13.9095L6.9373 13.0699C6.89783 12.9908 6.84292 12.9204 6.77581 12.8628C6.70871 12.8053 6.63076 12.7617 6.54657 12.7348C6.29656 12.6546 6.05364 12.5545 5.82075 12.4333C5.74206 12.3923 5.65594 12.3675 5.56748 12.3603C5.47902 12.3532 5.39004 12.364 5.30581 12.3919L4.41179 12.6895C4.17404 12.7688 3.91497 12.7095 3.73772 12.5342C3.55785 12.357 3.49661 12.0948 3.57728 11.8537V11.8524L3.87357 10.961C3.90116 10.8774 3.91183 10.7891 3.90494 10.7014C3.89806 10.6136 3.87376 10.5281 3.83346 10.4499C3.71395 10.2173 3.61451 9.97483 3.53588 9.72537C3.50937 9.64082 3.46617 9.56244 3.40884 9.49488C3.3515 9.42732 3.28119 9.37195 3.20208 9.33205L2.35722 8.90768H2.35593C2.13155 8.79577 1.99031 8.57032 1.98849 8.32159C1.98664 8.06927 2.12836 7.83992 2.35593 7.72643L3.1969 7.30595C3.276 7.26647 3.3464 7.21156 3.40395 7.14446C3.4615 7.07735 3.50504 6.99941 3.532 6.91522C3.61209 6.6656 3.7124 6.42322 3.83346 6.19068C3.87432 6.11217 3.89903 6.02627 3.90615 5.93805C3.91326 5.84983 3.90262 5.76108 3.87486 5.67704L3.57728 4.78173V4.78043C3.49777 4.54283 3.5567 4.28374 3.73125 4.10636C3.90845 3.92634 4.17052 3.86426 4.41179 3.94463L5.30452 4.24221C5.38801 4.27 5.4762 4.28089 5.56395 4.27422C5.6517 4.26756 5.73723 4.24348 5.81557 4.20339C6.04829 4.08422 6.29066 3.98533 6.5401 3.90711C6.62512 3.88046 6.70388 3.83693 6.77169 3.77913C6.83949 3.72133 6.89494 3.65045 6.93472 3.57072L7.35779 2.72457C7.47135 2.49674 7.70125 2.35515 7.95424 2.35713ZM7.95165 5.00555C6.13025 5.00555 4.63562 6.49501 4.63562 8.31641C4.63561 10.1378 6.13024 11.6311 7.95165 11.6311C9.77306 11.6311 11.2612 10.1378 11.2612 8.31641C11.2612 6.49501 9.77305 5.00555 7.95165 5.00555ZM7.95165 6.33041C9.05704 6.33041 9.93635 7.21101 9.93635 8.31641C9.93636 9.42181 9.05705 10.3063 7.95165 10.3063C6.84625 10.3063 5.96047 9.42181 5.96048 8.31641C5.96048 7.21101 6.84626 6.33041 7.95165 6.33041Z" fill="#9390A0"/>
</g>
<defs>
<clipPath id="clip0_368_6636">
<rect width="15.8985" height="15.8985" fill="white" transform="translate(0 0.368652)"/>
</clipPath>
</defs>
</svg>

<svg width="16" height="17" fill="none" xmlns="http://www.w3.org/2000/svg"><g clip-path="url(#clip0_368_6636)"><path fill-rule="evenodd" clip-rule="evenodd" d="M7.965 1.032a1.99 1.99 0 00-1.792 1.1l-.313.626a5.832 5.832 0 00-.365.15l-.664-.22a1.989 1.989 0 00-2.044.49A1.988 1.988 0 002.32 5.2l.22.662a6.922 6.922 0 00-.153.367l-.624.312a1.988 1.988 0 00-1.1 1.79 1.987 1.987 0 001.1 1.762l.627.316c.046.123.096.244.15.364l-.22.663c-.24.716-.05 1.511.489 2.043a1.988 1.988 0 002.022.468l.662-.22c.121.055.244.106.368.153l.312.622a1.986 1.986 0 003.553 0l.311-.623c.125-.047.249-.097.37-.152l.66.22c.707.236 1.49.056 2.022-.468a1.99 1.99 0 00.49-2.044l-.22-.663a6 6 0 00.152-.366l.624-.313a1.987 1.987 0 001.1-1.761 1.988 1.988 0 00-1.1-1.79l-.626-.314a5.998 5.998 0 00-.15-.367l.22-.661v-.002a1.988 1.988 0 00-.468-2.02 1.99 1.99 0 00-2.044-.49l-.664.22a6.029 6.029 0 00-.366-.152l-.312-.624a1.988 1.988 0 00-1.76-1.1zm-.01 1.325a.66.66 0 01.585.368l.42.84a.662.662 0 00.392.336c.25.08.492.18.724.3a.662.662 0 00.514.041l.895-.297h.001a.66.66 0 01.835.835v.002l-.296.891a.66.66 0 00.038.51c.12.233.218.476.297.726a.661.661 0 00.336.394l.846.423a.658.658 0 010 1.182h-.001l-.841.421a.663.663 0 00-.334.391c-.08.25-.18.492-.301.725a.661.661 0 00-.042.515l.298.894a.658.658 0 01-.835.836h-.001l-.891-.297a.662.662 0 00-.511.039 4.62 4.62 0 01-.726.298.662.662 0 00-.395.336l-.422.843a.66.66 0 01-1.182 0l-.42-.84a.663.663 0 00-.391-.334c-.25-.08-.493-.18-.726-.302a.665.665 0 00-.515-.041l-.894.298a.659.659 0 01-.835-.836v-.002l.297-.891a.663.663 0 00-.04-.511 4.633 4.633 0 01-.298-.725.663.663 0 00-.334-.393l-.845-.424h-.001a.66.66 0 010-1.182l.84-.42a.663.663 0 00.336-.39c.08-.25.18-.493.301-.725a.663.663 0 00.042-.514l-.298-.895V4.78a.66.66 0 01.835-.835l.893.297a.662.662 0 00.51-.039c.233-.119.476-.218.725-.296a.662.662 0 00.395-.336l.423-.846a.659.659 0 01.596-.368zm-.003 2.649a3.324 3.324 0 00-3.316 3.31 3.328 3.328 0 003.316 3.315 3.322 3.322 0 003.31-3.315 3.319 3.319 0 00-3.31-3.31zm0 1.324c1.105 0 1.984.881 1.984 1.986 0 1.106-.879 1.99-1.984 1.99a1.983 1.983 0 01-1.992-1.99A1.98 1.98 0 017.952 6.33z" fill="#9390A0"/></g><defs><clipPath id="clip0_368_6636"><path fill="#fff" transform="translate(0 .369)" d="M0 0h15.899v15.899H0z"/></clipPath></defs></svg>
